_includes/icons/color-doctors-bag.svg

<svg fill="#666" height="50" viewBox="0 0 48 48" width="50" xmlns="http://www.w3.org/2000/svg"><path d="m19 12v-4h10v4h2v-4c0-1.105469-.894531-2-2-2h-10c-1.105469 0-2 .894531-2 2v4z" fill="#455a64"/><path d="m44 37c0 2.761719-2.238281 5-5 5h-30c-2.761719 0-5-2.238281-5-5v-20c0-2.761719 2.238281-5 5-5h30c2.761719 0 5 2.238281 5 5z" fill="#f44336"/><path d="m34 27c0 5.523438-4.476562 10-10 10-5.523437 0-10-4.476562-10-10 0-5.523437 4.476563-10 10-10 5.523438 0 10 4.476563 10 10z" fill="#fff"/><g fill="#f44336"><path d="m22 21h4v12h-4z"/><path d="m18 25h12v4h-12z"/></g></svg>

<svg xmlns="http://www.w3.org/2000/svg" viewBox="0 0 48 48" width="50" height="50" fill="#666"><path d="M 19 12 L 19 8 L 29 8 L 29 12 L 31 12 L 31 8 C 31 6.894531 30.105469 6 29 6 L 19 6 C 17.894531 6 17 6.894531 17 8 L 17 12 Z" fill="#455a64"/><path d="M 44 37 C 44 39.761719 41.761719 42 39 42 L 9 42 C 6.238281 42 4 39.761719 4 37 L 4 17 C 4 14.238281 6.238281 12 9 12 L 39 12 C 41.761719 12 44 14.238281 44 17 Z" fill="#f44336"/><path d="M 34 27 C 34 32.523438 29.523438 37 24 37 C 18.476563 37 14 32.523438 14 27 C 14 21.476563 18.476563 17 24 17 C 29.523438 17 34 21.476563 34 27 Z" fill="#fff"/><path d="M 22 21 L 26 21 L 26 33 L 22 33 Z" fill="#f44336"/><path d="M 18 25 L 30 25 L 30 29 L 18 29 Z" fill="#f44336"/></svg>
